packages/icons/raw/imported/MediaVolume.svg

<svg width="32" height="32" viewBox="0 0 32 32" fill="none" xmlns="http://www.w3.org/2000/svg">
<path d="M21.4835 10.3168C21.2453 10.1772 20.939 10.2572 20.7994 10.4955C20.6598 10.7337 20.7397 11.04 20.978 11.1796L21.4835 10.3168ZM20.978 21.4418C20.7397 21.5814 20.6598 21.8877 20.7994 22.1259C20.939 22.3642 21.2453 22.4442 21.4835 22.3046L20.978 21.4418ZM20.8937 14.3696C20.68 14.1947 20.365 14.2261 20.1901 14.4398C20.0151 14.6535 20.0466 14.9685 20.2602 15.1434L20.8937 14.3696ZM20.2602 17.4785C20.0466 17.6535 20.0151 17.9685 20.1901 18.1822C20.365 18.3958 20.68 18.4272 20.8937 18.2523L20.2602 17.4785ZM16.2762 7.08629L16.6189 7.45039L16.6189 7.45039L16.2762 7.08629ZM16.2762 24.9138L15.9335 25.2779L15.9335 25.2779L16.2762 24.9138ZM11.3468 20.2743L11.6895 19.9102L11.3468 20.2743ZM11.3468 11.7257L11.6895 12.0898L11.3468 11.7257ZM20.978 11.1796C22.8001 12.2472 24 14.1517 24 16.3107H25C25 13.7661 23.5846 11.5478 21.4835 10.3168L20.978 11.1796ZM24 16.3107C24 18.4697 22.8001 20.3742 20.978 21.4418L21.4835 22.3046C23.5846 21.0736 25 18.8553 25 16.3107H24ZM20.2602 15.1434C20.5165 15.3532 20.7308 15.7756 20.7308 16.311H21.7308C21.7308 15.5319 21.4221 14.8022 20.8937 14.3696L20.2602 15.1434ZM20.7308 16.311C20.7308 16.8463 20.5165 17.2688 20.2602 17.4785L20.8937 18.2523C21.4221 17.8197 21.7308 17.0901 21.7308 16.311H20.7308ZM8 17.7307V14.2693H7V17.7307H8ZM9.5 12.7693H9.97608V11.7693H9.5V12.7693ZM9.97607 19.2307H9.5V20.2307H9.97607V19.2307ZM7 17.7307C7 19.1114 8.11929 20.2307 9.5 20.2307V19.2307C8.67157 19.2307 8 18.5591 8 17.7307H7ZM8 14.2693C8 13.4409 8.67157 12.7693 9.5 12.7693V11.7693C8.11929 11.7693 7 12.8886 7 14.2693H8ZM11.6895 12.0898L16.6189 7.45039L15.9335 6.72219L11.0041 11.3616L11.6895 12.0898ZM17.4616 7.81449V24.1856H18.4616V7.81449H17.4616ZM16.6189 24.5497L11.6895 19.9102L11.0041 20.6384L15.9335 25.2779L16.6189 24.5497ZM17.4616 24.1856C17.4616 24.6238 16.938 24.85 16.6189 24.5497L15.9335 25.2779C16.8908 26.1789 18.4616 25.5002 18.4616 24.1856H17.4616ZM16.6189 7.45039C16.938 7.15007 17.4616 7.3763 17.4616 7.81449H18.4616C18.4616 6.49992 16.8908 5.82123 15.9335 6.72219L16.6189 7.45039ZM9.97607 20.2307C10.3582 20.2307 10.7259 20.3765 11.0041 20.6384L11.6895 19.9102C11.2258 19.4737 10.6129 19.2307 9.97607 19.2307V20.2307ZM9.97608 12.7693C10.6129 12.7693 11.2258 12.5263 11.6895 12.0898L11.0041 11.3616C10.7259 11.6235 10.3582 11.7693 9.97608 11.7693V12.7693Z" fill="black"/>
</svg>

<svg width="32" height="32" fill="none" xmlns="http://www.w3.org/2000/svg"><path d="M21.483 10.317a.5.5 0 1 0-.505.863l.505-.863Zm-.505 11.125a.5.5 0 1 0 .505.863l-.505-.863Zm-.084-7.072a.5.5 0 0 0-.634.773l.634-.773Zm-.634 3.109a.5.5 0 0 0 .634.773l-.634-.773ZM16.276 7.085l.343.364-.343-.364Zm0 17.828-.342.364.342-.364Zm-4.93-4.64.344-.364-.343.364Zm0-8.548.344.364-.343-.364Zm9.632-.546C22.8 12.247 24 14.152 24 16.31h1c0-2.544-1.415-4.762-3.517-5.993l-.505.863ZM24 16.31c0 2.16-1.2 4.064-3.022 5.132l.505.863C23.585 21.074 25 18.855 25 16.31h-1Zm-3.74-1.167c.256.21.47.633.47 1.168h1c0-.78-.308-1.509-.836-1.941l-.634.773Zm.47 1.168c0 .535-.213.958-.47 1.168l.634.773c.528-.432.837-1.162.837-1.941h-1ZM8 17.731v-3.462H7v3.462h1Zm1.5-4.962h.476v-1H9.5v1Zm.476 6.462H9.5v1h.476v-1ZM7 17.73a2.5 2.5 0 0 0 2.5 2.5v-1a1.5 1.5 0 0 1-1.5-1.5H7Zm1-3.462a1.5 1.5 0 0 1 1.5-1.5v-1a2.5 2.5 0 0 0-2.5 2.5h1Zm3.69-2.18 4.929-4.639-.685-.728-4.93 4.64.686.728Zm5.772-4.275v16.372h1V7.814h-1Zm-.843 16.736-4.93-4.64-.685.728 4.93 4.64.685-.728Zm.843-.364a.5.5 0 0 1-.843.364l-.685.728c.957.9 2.528.222 2.528-1.092h-1ZM16.619 7.45a.5.5 0 0 1 .843.364h1c0-1.314-1.571-1.993-2.528-1.092l.685.728ZM9.976 20.23a1.5 1.5 0 0 1 1.028.408l.686-.728a2.5 2.5 0 0 0-1.714-.68v1Zm0-7.46a2.5 2.5 0 0 0 1.713-.68l-.685-.728a1.5 1.5 0 0 1-1.028.407v1Z" fill="#000"/></svg>
